src/assets/risk.svg

<?xml version="1.0" encoding="UTF-8" standalone="no"?>
<svg
   xmlns:dc="http://purl.org/dc/elements/1.1/"
   xmlns:cc="http://creativecommons.org/ns#"
   xmlns:rdf="http://www.w3.org/1999/02/22-rdf-syntax-ns#"
   xmlns:svg="http://www.w3.org/2000/svg"
   xmlns="http://www.w3.org/2000/svg"
   xmlns:sodipodi="http://sodipodi.sourceforge.net/DTD/sodipodi-0.dtd"
   xmlns:inkscape="http://www.inkscape.org/namespaces/inkscape"
   version="1.1"
   id="svg919"
   width="90.708664"
   height="90.705376"
   viewBox="0 0 90.708664 90.705377"
   sodipodi:docname="risk.svg"
   inkscape:version="0.92.4 5da689c313, 2019-01-14">
  <sodipodi:namedview
     pagecolor="#ffffff"
     bordercolor="#666666"
     borderopacity="1"
     objecttolerance="10"
     gridtolerance="10"
     guidetolerance="10"
     inkscape:pageopacity="0"
     inkscape:pageshadow="2"
     inkscape:window-width="2463"
     inkscape:window-height="1423"
     id="namedview819"
     showgrid="false"
     inkscape:zoom="3.4452203"
     inkscape:cx="107.19932"
     inkscape:cy="50.538783"
     inkscape:window-x="0"
     inkscape:window-y="0"
     inkscape:window-maximized="1"
     inkscape:current-layer="svg919" />
  <metadata
     id="metadata925">
    <rdf:RDF>
      <cc:Work
         rdf:about="">
        <dc:format>image/svg+xml</dc:format>
        <dc:type
           rdf:resource="http://purl.org/dc/dcmitype/StillImage" />
        <dc:title></dc:title>
      </cc:Work>
    </rdf:RDF>
  </metadata>
  <defs
     id="defs923" />
  <path
     style="fill:#000000;stroke-width:0.47318015"
     d="M 3.2012778,86.665336 C 1.2981848,85.888857 0.06541881,83.762908 0.29996881,81.661921 0.58773781,79.084287 40.15071,7.6479915 42.544756,5.3832575 44.816168,3.2345335 46.598959,3.3010995 48.881206,5.6198475 51.527958,8.3089315 90.61412,79.038951 90.911532,81.677612 91.106094,83.403754 90.79557,84.767698 89.557277,86.153686 L 88.26788,86.888535 46.234227,86.980796 C 23.115719,87.031539 3.7508908,86.889581 3.2012778,86.665336 Z M 50.808819,71.983363 V 66.778381 H 45.603837 40.398856 V 71.983363 77.188344 H 45.603837 50.808819 Z M 49.134551,59.089202 C 49.946174,53.18495 51.27448,36.030644 51.277972,31.408164 L 51.281999,26.084888 H 45.603837 39.925675 V 31.263716 C 39.925675,35.680226 41.240828,52.613036 42.08685,59.089202 L 42.349564,61.100218 H 45.603837 48.85811 Z"
     id="path832"
     inkscape:connector-curvature="0"
     sodipodi:nodetypes="ccsscccsccccccccccsccccsccccs" />
</svg>

<svg xmlns="http://www.w3.org/2000/svg" width="90.709" height="90.705"><path style="fill:#000;stroke-width:.47318015" d="M3.201 86.665C1.298 85.89.065 83.763.3 81.662.588 79.084 40.15 7.648 42.545 5.383c2.271-2.148 4.054-2.082 6.336.237 2.647 2.689 41.733 73.419 42.03 76.058.195 1.726-.115 3.09-1.354 4.476l-1.29.735-42.033.092c-23.118.05-42.483-.091-43.033-.316zM50.81 71.983v-5.205h-10.41v10.41h10.41zM49.135 59.09c.811-5.904 2.14-23.058 2.143-27.68l.004-5.324H39.926v5.179c0 4.416 1.315 21.349 2.16 27.825l.264 2.011h6.508z"/></svg>
